X: 15
T:Tom Tinker's My True Love,aka. TBe.015
M:3/4
L:1/8
Q:140
C:titled only "Minuett" in MS
S:Thomas Bennet MS,1718, VWML
R:Minuet
O:England
N:Title supplied in margin in F.Kidson's hand..
H:1718
Z:vmp.C. Graebe..
K:G major
d3 efd | g2d2d2 | B2G2G2 | G4 D2 |\
 GFGABc | d4 A2 | F2D2D2 | D6 ||!
B3 cBA | G2E2E2 | BABcBA | G2E2E2 |\
 c3 d c2 | B2e2A2 | A4G2 | G6 ||
